public/images/Logo.svg

<svg width="36" height="36" viewBox="0 0 36 36" fill="none" xmlns="http://www.w3.org/2000/svg">
<path d="M18 36C27.9411 36 36 27.9411 36 18C36 8.05888 27.9411 0 18 0C8.05888 0 0 8.05888 0 18C0 22.152 1.40577 25.9756 3.76732 29.021L7.73554 14.0299C9.38672 7.52344 13.6758 4.15725 20.5616 4.15725H22.936C27.7785 4.15725 31.335 8.70307 30.1698 13.4033C29.9609 14.2463 29.5702 15.0334 29.0253 15.7097L27.0045 18.2174C26.486 18.8609 26.2968 19.7092 26.493 20.5121L27.109 23.0338C27.4278 24.339 27.3695 25.708 26.941 26.9814C25.4832 31.3132 21.4227 34.231 16.8521 34.231H10.2086C12.5662 35.3648 15.2089 36 18 36Z" fill="#141624"/>
<path fill-rule="evenodd" clip-rule="evenodd" d="M17.7 21.7592H14.1932C13.0747 21.7592 12.0968 22.5135 11.8129 23.5953L10.4373 28.8354H15.871C17.8811 28.8354 19.6384 27.4799 20.1487 25.5357L20.2666 25.0865C20.7082 23.4043 19.4392 21.7592 17.7 21.7592ZM16.6646 23.3514H14.759C14.1206 23.3514 13.5623 23.7814 13.3993 24.3988L12.6486 27.2432H15.6532C16.7647 27.2432 17.7364 26.4977 18.0186 25.4284L18.0838 25.1814C18.328 24.2562 17.6263 23.3514 16.6646 23.3514Z" fill="#141624"/>
<path fill-rule="evenodd" clip-rule="evenodd" d="M14.9971 11.7427C15.2811 10.6609 16.2589 9.90663 17.3774 9.90663H20.8843C22.6235 9.90663 23.8925 11.5517 23.4509 13.2339L23.333 13.6831C22.8227 15.6273 21.0654 16.9828 19.0553 16.9828H13.6216L14.9971 11.7427ZM16.5836 12.5462C16.7465 11.9289 17.3049 11.4988 17.9433 11.4988H19.8489C20.8106 11.4988 21.5123 12.4036 21.2681 13.3288L21.2029 13.5758C20.9207 14.6451 19.949 15.3907 18.8375 15.3907H15.8329L16.5836 12.5462Z" fill="#141624"/>
</svg>

<svg xmlns="http://www.w3.org/2000/svg" width="36" height="36" fill="none"><path fill="#141624" d="M18 36c9.941 0 18-8.059 18-18S27.941 0 18 0 0 8.059 0 18c0 4.152 1.406 7.976 3.767 11.021L7.736 14.03c1.65-6.507 5.94-9.873 12.826-9.873h2.374c4.843 0 8.399 4.546 7.234 9.246-.21.843-.6 1.63-1.145 2.307l-2.02 2.507a2.65 2.65 0 0 0-.512 2.295l.616 2.522a7.1 7.1 0 0 1-.168 3.947 10.645 10.645 0 0 1-10.089 7.25H10.21C12.566 35.365 15.209 36 18 36"/><path fill="#141624" fill-rule="evenodd" d="M17.7 21.76h-3.507a2.46 2.46 0 0 0-2.38 1.835l-1.376 5.24h5.434a4.42 4.42 0 0 0 4.278-3.3l.118-.448a2.654 2.654 0 0 0-2.567-3.328m-1.035 1.591h-1.906c-.638 0-1.197.43-1.36 1.048l-.75 2.844h3.004a2.44 2.44 0 0 0 2.366-1.815l.065-.247a1.46 1.46 0 0 0-1.42-1.83M14.997 11.743a2.46 2.46 0 0 1 2.38-1.836h3.507a2.654 2.654 0 0 1 2.567 3.327l-.118.45a4.42 4.42 0 0 1-4.278 3.299h-5.433zm1.587.803a1.406 1.406 0 0 1 1.36-1.047h1.905c.962 0 1.663.905 1.42 1.83l-.066.247a2.44 2.44 0 0 1-2.366 1.815h-3.004z" clip-rule="evenodd"/></svg>
